tools/download-figma-icons/icons/action/info-x.svg

<svg width="24" height="24" viewBox="0 0 24 24" fill="none" xmlns="http://www.w3.org/2000/svg">
<path fill-rule="evenodd" clip-rule="evenodd" d="M24 12C24 5.37258 18.6274 0 12 0C5.37258 0 0 5.37258 0 12C0 18.6274 5.37258 24 12 24C15.1826 24 18.2348 22.7357 20.4853 20.4853C22.7357 18.2348 24 15.1826 24 12ZM16.0438 6.49782L17.5022 7.95622L13.4584 12L17.5022 16.0438L16.0438 17.5022L12 13.4584L7.95623 17.5022L6.49782 16.0438L10.5416 12L6.49782 7.95624L7.95623 6.49784L12 10.5416L16.0438 6.49782Z" fill="black"/>
</svg>

<svg width="24" height="24" viewBox="0 0 24 24" fill="none" xmlns="http://www.w3.org/2000/svg"><path fill-rule="evenodd" clip-rule="evenodd" d="M24 12c0-6.627-5.373-12-12-12S0 5.373 0 12s5.373 12 12 12a12 12 0 0 0 12-12Zm-7.956-5.502 1.458 1.458L13.458 12l4.044 4.044-1.458 1.458L12 13.458l-4.044 4.044-1.458-1.458L10.542 12 6.498 7.956l1.458-1.458L12 10.542l4.044-4.044Z" fill="currentColor"/></svg>
